public/library/gamma-text-light.svg

<svg width="181" height="29" viewBox="0 0 181 29" fill="none" xmlns="http://www.w3.org/2000/svg">
<path d="M24.0016 0.497855V5.39342H12.5566C9.86686 5.39342 7.90447 6.11254 6.6694 7.55079C5.46177 8.96137 4.85795 11.2847 4.85795 14.5207C4.85795 17.7291 5.46177 20.0525 6.6694 21.4907C7.87702 22.9013 9.83942 23.6066 12.5566 23.6066H17.1675C18.5398 23.6066 19.5279 23.247 20.1317 22.5279C20.7355 21.7811 21.0374 20.8269 21.0374 19.6652C21.0374 18.5312 20.7492 17.66 20.1729 17.0515C19.6239 16.4154 18.7731 16.0973 17.6204 16.0973H11.445V11.824H18.1144C20.612 11.824 22.4646 12.5432 23.6722 13.9814C24.8799 15.392 25.4837 17.3143 25.4837 19.7482C25.4837 20.9652 25.319 22.113 24.9896 23.1917C24.6877 24.2427 24.18 25.1693 23.4664 25.9714C22.7802 26.7458 21.8882 27.3681 20.7904 27.8383C19.72 28.2809 18.4026 28.5021 16.8382 28.5021H12.5566C8.49456 28.5021 5.37943 27.3543 3.21119 25.0587C1.0704 22.7353 0 19.2227 0 14.5207C0 9.79113 1.0704 6.27849 3.21119 3.98283C5.37943 1.65951 8.49456 0.497855 12.5566 0.497855H24.0016Z" fill="#FF0035"/>
<path d="M32.614 28.5021H27.262L37.0191 3.60944C37.5405 2.28183 38.2679 1.35527 39.201 0.829756C40.1616 0.276585 41.383 0 42.8651 0C44.3197 0 45.5136 0.276585 46.4468 0.829756C47.4074 1.35527 48.1347 2.28183 48.6288 3.60944L58.0153 28.5021H52.6222L44.1825 5.97425C43.9355 5.3381 43.4826 5.02003 42.8239 5.02003C42.1652 5.02003 41.6986 5.3381 41.4242 5.97425L32.614 28.5021Z" fill="#FF0035"/>
<path d="M66.9152 28.5021H62.0985V6.26466C62.0985 4.38388 62.6474 2.87649 63.7452 1.74249C64.8431 0.58083 66.5173 0 68.7679 0C70.744 0 72.3084 0.484026 73.4611 1.45208C74.6139 2.39247 75.3824 3.74773 75.7666 5.51788L79.6777 22.6524C79.9247 23.7034 80.5422 24.2289 81.5303 24.2289C82.4909 24.2289 83.1084 23.7034 83.3829 22.6524L87.2939 5.51788C87.6782 3.74773 88.4055 2.39247 89.4759 1.45208C90.5738 0.484026 92.1245 0 94.128 0C96.3786 0 98.0528 0.58083 99.1507 1.74249C100.248 2.87649 100.797 4.38388 100.797 6.26466V28.5021H95.9806V6.51359C95.9806 5.96042 95.8022 5.53171 95.4454 5.22747C95.1161 4.89557 94.6358 4.72961 94.0045 4.72961C93.4281 4.72961 92.989 4.86791 92.6871 5.14449C92.3852 5.39342 92.1793 5.75298 92.0696 6.22318L88.0762 23.3577C87.637 25.2108 86.9097 26.6214 85.8942 27.5894C84.8787 28.5298 83.4103 29 81.4891 29C79.5404 29 78.0309 28.516 76.9605 27.5479C75.9176 26.5799 75.1902 25.1831 74.7785 23.3577L70.8263 6.22318C70.7165 5.75298 70.497 5.39342 70.1676 5.14449C69.8657 4.86791 69.4403 4.72961 68.8914 4.72961C68.2601 4.72961 67.7661 4.89557 67.4093 5.22747C67.0799 5.53171 66.9152 5.96042 66.9152 6.51359V28.5021Z" fill="#FF0035"/>
<path d="M112.266 28.5021H107.449V6.26466C107.449 4.38388 107.998 2.87649 109.096 1.74249C110.193 0.58083 111.868 0 114.118 0C116.094 0 117.659 0.484026 118.811 1.45208C119.964 2.39247 120.733 3.74773 121.117 5.51788L125.028 22.6524C125.275 23.7034 125.893 24.2289 126.881 24.2289C127.841 24.2289 128.459 23.7034 128.733 22.6524L132.644 5.51788C133.029 3.74773 133.756 2.39247 134.826 1.45208C135.924 0.484026 137.475 0 139.478 0C141.729 0 143.403 0.58083 144.501 1.74249C145.599 2.87649 146.148 4.38388 146.148 6.26466V28.5021H141.331V6.51359C141.331 5.96042 141.153 5.53171 140.796 5.22747C140.466 4.89557 139.986 4.72961 139.355 4.72961C138.778 4.72961 138.339 4.86791 138.037 5.14449C137.736 5.39342 137.53 5.75298 137.42 6.22318L133.427 23.3577C132.987 25.2108 132.26 26.6214 131.245 27.5894C130.229 28.5298 128.761 29 126.839 29C124.891 29 123.381 28.516 122.311 27.5479C121.268 26.5799 120.541 25.1831 120.129 23.3577L116.177 6.22318C116.067 5.75298 115.847 5.39342 115.518 5.14449C115.216 4.86791 114.791 4.72961 114.242 4.72961C113.61 4.72961 113.116 4.89557 112.76 5.22747C112.43 5.53171 112.266 5.96042 112.266 6.51359V28.5021Z" fill="#FF0035"/>
<path d="M155.599 28.5021H150.247L160.004 3.60944C160.525 2.28183 161.253 1.35527 162.186 0.829756C163.146 0.276585 164.368 0 165.85 0C167.304 0 168.498 0.276585 169.431 0.829756C170.392 1.35527 171.119 2.28183 171.613 3.60944L181 28.5021H175.607L167.167 5.97425C166.92 5.3381 166.467 5.02003 165.809 5.02003C165.15 5.02003 164.683 5.3381 164.409 5.97425L155.599 28.5021Z" fill="#FF0035"/>
</svg>

<svg xmlns="http://www.w3.org/2000/svg" width="181" height="29" fill="none" viewBox="0 0 181 29"><path fill="#ff0035" d="M24.002.498v4.895H12.557q-4.035 0-5.888 2.158-1.81 2.116-1.811 6.97 0 4.812 1.811 6.97 1.812 2.115 5.888 2.116h4.61q2.058 0 2.965-1.08.905-1.119.905-2.862 0-1.701-.864-2.613-.824-.955-2.553-.955h-6.175v-4.273h6.67q3.746 0 5.557 2.157 1.812 2.116 1.812 5.767a11.7 11.7 0 0 1-.494 3.444 7.06 7.06 0 0 1-1.524 2.78q-1.029 1.161-2.676 1.866-1.605.664-3.952.664h-4.281q-6.094 0-9.346-3.443Q.001 21.574 0 14.52 0 7.426 3.211 3.983 6.464.498 12.557.498zM32.614 28.502h-5.352L37.019 3.61q.783-1.99 2.182-2.78Q40.641.002 42.865 0q2.183 0 3.582.83 1.44.788 2.182 2.78l9.386 24.892h-5.393l-8.44-22.528q-.37-.954-1.358-.954t-1.4.954zM66.915 28.502h-4.817V6.265q0-2.822 1.647-4.523Q65.392 0 68.768 0q2.964 0 4.693 1.452 1.729 1.41 2.306 4.066l3.91 17.134q.371 1.577 1.853 1.577 1.44 0 1.853-1.577l3.91-17.134q.577-2.655 2.183-4.066Q91.123 0 94.128 0q3.376 0 5.023 1.742 1.646 1.701 1.646 4.523v22.237h-4.816V6.514q0-.83-.536-1.287-.494-.497-1.44-.497-.865 0-1.318.414-.453.374-.617 1.08l-3.994 17.134q-.658 2.78-2.182 4.231Q84.371 29 81.49 29q-2.923 0-4.529-1.452-1.564-1.452-2.181-4.19L70.825 6.223q-.165-.705-.658-1.079-.453-.414-1.277-.414-.946 0-1.482.497-.494.457-.494 1.287zM112.266 28.502h-4.817V6.265q0-2.822 1.647-4.523Q110.742 0 114.118 0q2.965 0 4.693 1.452 1.73 1.41 2.306 4.066l3.911 17.134q.37 1.577 1.853 1.577 1.44 0 1.852-1.577l3.911-17.134q.577-2.655 2.182-4.066Q136.473 0 139.478 0q3.376 0 5.023 1.742 1.647 1.701 1.647 4.523v22.237h-4.817V6.514q0-.83-.535-1.287-.495-.497-1.441-.497-.865 0-1.318.414-.452.374-.617 1.08l-3.993 17.134q-.66 2.78-2.182 4.231Q129.721 29 126.839 29q-2.922 0-4.528-1.452-1.564-1.452-2.182-4.19l-3.952-17.135q-.165-.705-.659-1.079-.453-.414-1.276-.414-.948 0-1.482.497-.495.457-.494 1.287zM155.599 28.502h-5.352l9.757-24.893q.782-1.99 2.182-2.78 1.44-.828 3.664-.829 2.181 0 3.581.83 1.441.788 2.182 2.78L181 28.501h-5.393l-8.44-22.528q-.37-.954-1.358-.954t-1.4.954z"/></svg>
